X:755
%%etbk:tnset id:483,pos:1,rep:3x,ant:
%%etbk:wsite https://thesession.org/tunes/12050
%%etbk:pldat 2015-06-17T17:27,2015-06-10T17:47,2015-06-08T18:15
T: The Rambling Sailor
Z: Piano Box Version by Martin Fleischmann
H: Created 2015-06-08 /  Last Modified 2015-06-10
R: polka
M: 2/4
L: 1/8
K: Amaj
P:Intro
|: [A,ea]>[A,ea] A[A,ea] |A[A,ea] A[A,ea] | [A,ea]1 A/[A,ea]/  A[A,ea] |A[A,ea] A[A,ea] |
 [A,ea]>[A,ea] A[A,ea] |A[A,ea] A[A,ea]   |[Ddf]2 [Ddf]2| [Eeg]2 [Eeg]2 :|
P:A
|: !1!A>!1!B !2!c!3!e | !5!a!3!e !4!fe | !1!A>!1!B ce | !4!fe c!1!B |
!1!A>!1!B ce | !5!a!1!e !2!fe | !2!f/g/a/f/ !1!e!3!c | EF A2 :|
P:B
|: !3!c>c cB | !3!ce !5!fe | !3!c>c ce | !3!c/B/A !2!B2 |
!3!c>c cB | !3!c!4!e !2!fe | !2!f/g/a/f/ !1!e!3!c | EF A2 :|


